!!!COM: Palestrina, Giovanni Perluigi da
!!!OPR: Missa Salvum me fac
!!!OTL: Agnus II
**kern	**kern	**kern	**kern	**kern	**kern
*Ibass	*Itenor	*Itenor	*Icalto	*Icant	*Icant
!Bassus	!Tenor 2	!Tenor 1	!Altus	!Cantus 2	!Cantus 1
*clefF4	*clefGv2	*clefGv2	*clefG2	*clefG2	*clefG2
*k[b-]	*k[b-]	*k[b-]	*k[b-]	*k[b-]	*k[b-]
*G:dor	*G:dor	*G:dor	*G:dor	*G:dor	*G:dor
*M4/2	*M4/2	*M4/2	*M4/2	*M4/2	*M4/2
=1	=1	=1	=1	=1	=1
0r	0r	0r	0r	0r	1g
.	.	.	.	.	1g
=2	=2	=2	=2	=2	=2
0r	0r	0r	0r	0r	1.dd
.	.	.	.	.	2b-
=3	=3	=3	=3	=3	=3
0r	0r	0r	1c	1r	2cc
.	.	.	.	.	2dd
.	.	.	1c	1g	1ee-
=4	=4	=4	=4	=4	=4
0r	0r	0r	1.g	1g	2.dd
.	.	.	.	.	4cc
.	.	.	.	[1dd	2b-
.	.	.	2f	.	2a
=5	=5	=5	=5	=5	=5
0r	1G	0r	2g	2dd]	2b-
.	.	.	2a	2cc	2a
.	1G	.	1b-	2dd	1g
.	.	.	.	2ee	.
=6	=6	=6	=6	=6	=6
0r	1.d	0r	2.a	1ff	2.f
.	.	.	4g	.	4g
.	.	.	4f	1dd	4a
.	.	.	4d	.	4f
.	2B-	.	[2g	.	2b-
=7	=7	=7	=7	=7	=7
0r	2c	0r	2g]	2ee-	1a
.	2d	.	2f#	4dd	.
.	.	.	.	4cc	.
.	2.e-	.	2.g	1b-	[1g
.	4d	.	4f	.	.
=8	=8	=8	=8	=8	=8
1C	2c	1r	2e-	0cc	0g]
.	2d	.	2d	.	.
1C	1e-	1G	1c	.	.
=9	=9	=9	=9	=9	=9
1.G	2.d	1G	4B-	0dd	0r
.	.	.	4G	.	.
.	.	.	1g	.	.
.	4c	.	.	.	.
.	2B-	[1d	.	.	.
2F#	2A	.	2a	.	.
=10	=10	=10	=10	=10	=10
2G	2B-	2d]	2g	0r	0r
2A	2A	2c	2f#	.	.
[1B-	1G	2d	1g	.	.
.	.	2e	.	.	.
=11	=11	=11	=11	=11	=11
2B-]	1F	1f	1c	0r	1r
2A	.	.	.	.	.
2.G	2.B-	2e-	1r	.	1g
.	.	[2d	.	.	.
4F	4A	.	.	.	.
=12	=12	=12	=12	=12	=12
1E-	1G	2d]	0r	2r	1g
.	.	2c	.	1g	.
1D	2r	2B-	.	.	[1dd
.	[2d	2A	.	2f#	.
=13	=13	=13	=13	=13	=13
0r	2d]	2B-	1r	2g	2dd]
.	2e	2A	.	2a	2cc#
.	1g	1G	1d	1b-	2dd
.	.	.	.	.	2ee
=14	=14	=14	=14	=14	=14
0r	4f	0r	1d	2a	2.ff
.	4e-	.	.	.	.
.	4d	.	.	2.dd	.
.	4c	.	.	.	4ee-
.	2B-	.	[1g	.	2dd
.	.	.	.	4b-	.
.	2c	.	.	2ee-	2cc
=15	=15	=15	=15	=15	=15
0r	1d	0r	2g]	[0dd	2b-
.	.	.	2f#	.	2a
.	1r	.	2g	.	2g
.	.	.	2a	.	2f#
=16	=16	=16	=16	=16	=16
0r	1r	1G	2b-	0dd]	2g
.	.	.	2a	.	2a
.	1d	1G	1g	.	1b-
=17	=17	=17	=17	=17	=17
0r	1d	1.d	2.f	2r	[0a
.	.	.	.	1ff	.
.	.	.	4e	.	.
.	2.a	.	2d	.	.
.	.	2c#	2e	2ee	.
.	4g	.	.	.	.
=18	=18	=18	=18	=18	=18
1D	2f	2d	2f	1.dd	0a]
.	2e	2e	2g	.	.
1D	2.d	2.f	2a	.	.
.	.	.	2f	2a	.
.	4c	4e-	.	.	.
=19	=19	=19	=19	=19	=19
1.G	2B-	2d	1g	2b-	2r
.	2e-	2c	.	2cc	2g
.	1d	2B-	1r	2.dd	2g
2F#	.	2A	.	.	[2dd
.	.	.	.	4cc	.
=20	=20	=20	=20	=20	=20
2G	0r	2B-	1r	2b-	2dd]
2A	.	2c	.	4a	2cc
.	.	.	.	4g	.
2.B-	.	2d	1d	2f	[1b-
.	.	[2G	.	2g	.
4A	.	.	.	.	.
=21	=21	=21	=21	=21	=21
2G	1G	2G]	1d	1dd	2b-]
2F	.	2A	.	.	2a
1E-	1G	4B-	1g	1r	2.g
.	.	4G	.	.	.
.	.	[2B-	.	.	.
.	.	.	.	.	4a
=22	=22	=22	=22	=22	=22
1BB-	1.d	4B-]	2.f	2r	1b-
.	.	4c	.	.	.
.	.	4d	.	1ff	.
.	.	4e	4g	.	.
1r	.	4f	4a	.	1a
.	.	4g	4b-	.	.
.	2c	[2a	2cc	2ee	.
=23	=23	=23	=23	=23	=23
0r	2d	2a]	1b-	2ff	1r
.	2e	2g	.	4ee	.
.	.	.	.	4dd	.
.	2.f	2a	2.a	2cc	2r
.	.	[2d	.	2dd	[2ff
.	4e	.	4g	.	.
=24	=24	=24	=24	=24	=24
0r	2d	2d]	4f	1a	2ff]
.	.	.	4d	.	.
.	2c	2A	1a	.	2ee
.	1B-	1d	.	1r	2ff
.	.	.	2g	.	4ee
.	.	.	.	.	4dd
=25	=25	=25	=25	=25	=25
1r	0A	2e	1a	0r	2cc#
.	.	2f	.	.	1dd
2r	.	[1e	[1a	.	.
[2A	.	.	.	.	4cc#
.	.	.	.	.	4b
=26	=26	=26	=26	=26	=26
2A]	2r	2e]	2a]	0r	2cc#
1B-	1d	2d	2f	.	1dd
.	.	2r	1f	.	.
2A	[2f	2c	.	.	2cc
=27	=27	=27	=27	=27	=27
1G	2f]	2d	1g	1r	2b-
.	2e	2e	.	.	2g
2F	1d	2f	1r	2r	1a
2D	.	[2f	.	[2a	.
=28	=28	=28	=28	=28	=28
2F	2c	4f]	0r	2a]	0r
.	.	4e	.	.	.
1G	4B-	4d	.	1b-	.
.	4A	4c	.	.	.
.	4B-	1d	.	.	.
.	4c	.	.	.	.
2F	[2d	.	.	2a	.
=29	=29	=29	=29	=29	=29
1E	2d]	1G	2r	1g	0r
.	2c#	.	2g	.	.
[1D	[1d	2r	1b-	2g	.
.	.	[2d	.	4f	.
.	.	.	.	4e	.
=30	=30	=30	=30	=30	=30
0D]	1d]	2d]	2a	2f	2r
.	.	2.f	2.a	4d	1dd
.	.	.	.	4e	.
.	1r	.	.	4f	.
.	.	4e	4g	4g	.
.	.	[2d	4f	2a	[2ff
.	.	.	4e	.	.
=31	=31	=31	=31	=31	=31
0r	0r	2d]	2d	4b-	2ff]
.	.	.	.	4a	.
.	.	2c	2e	1a	2ee
.	.	1B-	2f	.	1dd
.	.	.	2d	2g	.
=32	=32	=32	=32	=32	=32
0r	2r	1A	1e	1a	2cc
.	1e	.	.	.	2a
.	.	1a	1A	2r	1cc
.	[2f	.	.	[2a	.
=33	=33	=33	=33	=33	=33
0r	2f]	2f	0r	2a]	2dd
.	2e	2g	.	1cc	2ee
.	1d	2a	.	.	1ff
.	.	4g	.	2b	.
.	.	4f	.	.	.
=34	=34	=34	=34	=34	=34
2r	2c	2g	1r	1cc	2ee
1A	4A	2a	.	.	2ee
.	4B	.	.	.	.
.	4c	1f	2r	2a	1ff
.	4A	.	.	.	.
[2B-	2d	.	[2d	2f	.
=35	=35	=35	=35	=35	=35
2B-]	2G	0r	2d]	2g	2dd
2A	2c	.	1f	2a	2cc
1G	2d	.	.	1b-	2b-
.	2e	.	2e	.	2g
=36	=36	=36	=36	=36	=36
2F	2f	2r	1d	0r	0a
2D	2.f	1A	.	.	.
1F	.	.	2c	.	.
.	4e	.	.	.	.
.	[2d	[2f	2A	.	.
=37	=37	=37	=37	=37	=37
0G	2d]	2f]	2B	1r	0g
.	1c	2e	2c	.	.
.	.	1d	2d	1dd	.
.	2B	.	2G	.	.
=38	=38	=38	=38	=38	=38
0C	1c	2.c	2.g	2.ee	2r
.	.	.	.	.	2g
.	.	4d	4f	4ff	.
.	2r	4e	1e	2gg	2g
.	.	4f	.	.	.
.	2c	[2g	.	2cc	2g
=39	=39	=39	=39	=39	=39
1G	2B-	2g]	1d	2dd	1b-
.	2G	2d	.	2b-	.
2F	1A	[1f	2r	2cc	2a
2D	.	.	2d	4f	2a
.	.	.	.	4g	.
=40	=40	=40	=40	=40	=40
1F	1A	2f]	2c	4a	1a
.	.	.	.	4b	.
.	.	2e	2A	1cc	.
1G	2r	1d	2B-	.	1g
.	2d	.	2G	2b	.
=41	=41	=41	=41	=41	=41
1C	2e	2.c	4g	0cc	2r
.	.	.	4f	.	.
.	1g	.	4e	.	2g
.	.	4B-	4d	.	.
1r	.	1A	1c	.	2a
.	2f	.	.	.	[2cc
=42	=42	=42	=42	=42	=42
0r	2e	1G	1g	1r	2cc]
.	2d	.	.	.	2b-
.	2f	1r	1r	2r	2a
.	[2g	.	.	2dd	2g
=43	=43	=43	=43	=43	=43
0r	2g]	1r	0r	2dd	2b-
.	2c	.	.	1gg	2cc
.	1d	2r	.	.	1a
.	.	2d	.	2ff	.
=44	=44	=44	=44	=44	=44
0r	0r	2e	2r	2ee	2g
.	.	1g	2g	2dd	2b-
.	.	.	2a	2.cc	1a
.	.	2f	[2cc	.	.
.	.	.	.	4dd	.
=45	=45	=45	=45	=45	=45
0r	0r	2e	2cc]	2ee	2g
.	.	2d	2b-	2.ff	2dd
.	.	2f	2a	.	2cc
.	.	.	.	4ee-	.
.	.	2g	[2b-	[2dd	4b-
.	.	.	.	.	4a
=46	=46	=46	=46	=46	=46
0r	1r	1e-	4b-]	2dd]	4g
.	.	.	4a	.	4f
.	.	.	1g	2cc	2g
.	2r	1d	.	1dd	1a
.	2d	.	2f#	.	.
=47	=47	=47	=47	=47	=47
2r	2e	0r	1g	2r	1g
2G	2g	.	.	2b-	.
2A	2f	.	2r	2a	1r
[2c	2e	.	2c	2g	.
=48	=48	=48	=48	=48	=48
2c]	1d	0r	2d	2.f	0r
2B-	.	.	1f	.	.
.	.	.	.	4g	.
2A	2c	.	.	2a	.
2G	2g	.	2e	[2b-	.
=49	=49	=49	=49	=49	=49
2B-	2f	0r	2d	4b-]	2r
.	.	.	.	4a	.
2c	1e	.	2e	1g	2g
1A	.	.	1c	.	2a
.	4d	.	.	2f#	[2cc
.	4c	.	.	.	.
=50	=50	=50	=50	=50	=50
1G	1d	2r	2r	1g	2cc]
.	.	2G	2g	.	2b-
1r	1c	2A	2f	1r	1a
.	.	[2c	2e	.	.
=51	=51	=51	=51	=51	=51
0r	2r	2c]	1d	0r	1g
.	2d	2B-	.	.	.
.	2e	2A	2r	.	2a
.	2g	2G	2d	.	[2b-
=52	=52	=52	=52	=52	=52
1r	2f	2B-	2d	0r	2b-]
.	2e	2c	1g	.	2g
1D	2d	1A	.	.	1dd
.	2d	.	2f	.	.
=53	=53	=53	=53	=53	=53
2E	2c	1G	2e	2r	0r
1G	1B-	.	1d	2g	.
.	.	1r	.	2b-	.
2F	2A	.	2a	[2cc	.
=54	=54	=54	=54	=54	=54
2E	2c	1r	2g	2cc]	2r
2D	4F	.	2.f	2dd	2a
.	4G	.	.	.	.
2F	4A	2r	.	2cc	2a
.	8G	.	4e-	.	.
.	8A	.	.	.	.
[2G	[2B-	2d	4d	4b-	[2dd
.	.	.	4c	4a	.
=55	=55	=55	=55	=55	=55
2G]	2B-]	2d	4B-	1g	2dd]
.	.	.	4G	.	.
2C	2G	1g	2e-	.	2cc
1D	2r	.	1d	2dd	2b-
.	[2A	2f	.	2dd	2a
=56	=56	=56	=56	=56	=56
2r	2A]	2e	1.a	2ee	2cc
2D	2A	2.d	.	1ff	2dd
2D	1d	.	.	.	2a
.	.	4c	.	.	.
[2G	.	4B-	2g	[2dd	[2b-
.	.	4A	.	.	.
=57	=57	=57	=57	=57	=57
2G]	1G	2B-	1g	2dd]	4b-]
.	.	.	.	.	4a
2C	.	2c	.	2ee-	1g
1D	1d	1A	2r	1dd	.
.	.	.	2a	.	2f#
=58	=58	=58	=58	=58	=58
1G	2d	[0G	2b-	2r	[0g
.	2B-	.	2.g	2dd	.
2.C	2c	.	.	2ee-	.
.	.	.	4f	.	.
.	[2e-	.	4e-	[2cc	.
4C	.	.	4d	.	.
=59	=59	=59	=59	=59	=59
2C	2e-]	0G]	2c	2cc]	0g]
2G	2d	.	2d	2b	.
1C	1c	.	1e-	1cc	.
=60	=60	=60	=60	=60	=60
[0G	[0B	[0G	[0d	[0dd	[0g
=61	=61	=61	=61	=61	=61
0G]	0B]	0G]	0d]	0dd]	0g]
==	==	==	==	==	==
*-	*-	*-	*-	*-	*-
!!!CDT: 1525/^1526/-1594/2/2
!!!OCY: Italia
!!!AGN: Mass (Parody)
!!!AST: renaissance, vocal
!!!ASW: Motet 1538 (Jacquet)
!!!PWK: Masses, Book 2
!!!RNB: Cadence finals: D
!!!YOR: Le Opere Complete, v. 4, p. 126
!!!YOO: Rome, Italy: Fratelli Scalera
!!!END: 1992//
!!!EED: John Miller
!!!YEC: Copyright 2000, John Miller
!!!YEN: United States of America
!!!YEM: Rights to all derivative electronic formats reserved.
!!!YEM: Refer to licensing agreement for further details.
!!!YEM: This file must be accompanied by the licensing agreement.
!!!YEM: A copy of the licensing agreement may be found at http://www.music-cog.ohio-state.edu/HumdrumDatabases/Palestrina/license.txt
!!!EMD: converted to Humdrum by Bret Aarden
